svgs/solid/bolt-auto.svg

<svg xmlns="http://www.w3.org/2000/svg" viewBox="0 0 576 512"><!--! Font Awesome Pro 6.0.0-alpha3 by @fontawesome - https://fontawesome.com License - https://fontawesome.com/license (Commercial License) --><path d="M381.1 244.8c-4.688-12.48-16.62-20.75-29.97-20.75l-111.5 .0079l76.88-179.4c5.906-13.73 1.5-29.72-10.59-38.5c-12.06-8.781-28.62-8.091-39.87 1.799L10.95 231.9C.9162 240.7-2.647 254.8 2.041 267.3c4.688 12.48 16.62 20.75 29.97 20.75l111.5 .0063l-76.88 179.4c-5.906 13.73-1.5 29.72 10.59 38.5C82.82 509.1 89.41 512 96 512c7.531 0 15.06-2.656 21.06-7.922l255.1-223.1C383.1 271.3 386.6 257.2 381.1 244.8zM572.6 465.3l-79.99-160.1c-10.84-21.81-46.4-21.81-57.24 0l-79.99 160.1c-7.906 15.91-1.5 35.24 14.31 43.19c15.87 7.922 35.04 1.477 42.93-14.4l7.154-14.39h88.43l7.154 14.39c6.174 12.43 23.97 23.87 42.93 14.4C574.1 500.5 580.5 481.2 572.6 465.3zM447.8 423.4l16.22-32.63l16.22 32.63H447.8z"/></svg>

<svg xmlns="http://www.w3.org/2000/svg" viewBox="0 0 576 512"><!-- Font Awesome Pro 6.0.0-alpha2 by @fontawesome - https://fontawesome.com License - https://fontawesome.com/license (Commercial License) --><path d="M381.958 244.76C377.271 232.275 365.335 224.01 351.992 224.01H240.523L317.4 44.625C323.306 30.891 318.9 14.908 306.806 6.127C294.745 -2.654 278.183 -1.951 266.933 7.939L10.945 231.932C0.915 240.713 -2.647 254.789 2.04 267.258C6.728 279.742 18.663 288.008 32.007 288.008H143.476L66.599 467.393C60.693 481.125 65.099 497.109 77.193 505.891C82.818 509.984 89.41 512 96.003 512C103.535 512 111.066 509.344 117.066 504.078L373.054 280.086C383.083 271.305 386.646 257.227 381.958 244.76ZM572.613 465.311L492.62 304.357C481.779 282.545 446.22 282.545 435.378 304.357L355.386 465.311C347.48 481.217 353.886 500.549 369.697 508.502C385.57 516.424 404.74 509.979 412.63 494.104L419.785 479.709H508.214L515.369 494.104C521.542 506.529 539.343 517.975 558.302 508.502C574.113 500.549 580.519 481.217 572.613 465.311ZM447.783 423.373L463.999 390.744L480.216 423.373H447.783Z"/></svg>
